X: 2415
M: C
L: 1/8
K: C
|:\
vG,C2E G4 | {d}c>Bc>a g>ed>c |\
{c}B>AB>a (3gag (3fed |
[1 c2{^f}g2 {f}g2{f}g2 :|\
[2 c2e2 c2z2 |:\
(vc'4 b2)z2 | (vF4 E2)z2 |\
(vde/f/) e>d (cd/e/) d>c |\
(Bc/d/) c>B [1 c>B A2 :|[2 A2 |:\
E>Gc>e g3 E |
E>Gc>e g3 E | F>Ac>f a3 A |\


